Menda-Circle/apps/48x48/apps/kuickshow.svg

<svg viewBox="0 0 48 48"><defs><linearGradient id="linearGradient3764" x1="1" x2="47" gradientUnits="userSpaceOnUse" gradientTransform="matrix(0,-1,1,0,-1.5e-6,47.999998)"><stop stop-color="#f49950" stop-opacity="1"/><stop offset="1" stop-color="#f5a562" stop-opacity="1"/></linearGradient><clipPath id="clipPath-974107602"><g transform="translate(0,-1004.3622)"><path d="m -24 13 c 0 1.105 -0.672 2 -1.5 2 -0.828 0 -1.5 -0.895 -1.5 -2 0 -1.105 0.672 -2 1.5 -2 0.828 0 1.5 0.895 1.5 2 z" transform="matrix(15.333333,0,0,11.5,414.99999,878.8622)" fill="#1890d0"/></g></clipPath><clipPath id="clipPath-981660920"><g transform="translate(0,-1004.3622)"><path d="m -24 13 c 0 1.105 -0.672 2 -1.5 2 -0.828 0 -1.5 -0.895 -1.5 -2 0 -1.105 0.672 -2 1.5 -2 0.828 0 1.5 0.895 1.5 2 z" transform="matrix(15.333333,0,0,11.5,414.99999,878.8622)" fill="#1890d0"/></g></clipPath></defs><g><path d="m 36.31 5 c 5.859 4.062 9.688 10.831 9.688 18.5 c 0 12.426 -10.07 22.5 -22.5 22.5 c -7.669 0 -14.438 -3.828 -18.5 -9.688 c 1.037 1.822 2.306 3.499 3.781 4.969 c 4.085 3.712 9.514 5.969 15.469 5.969 c 12.703 0 23 -10.298 23 -23 c 0 -5.954 -2.256 -11.384 -5.969 -15.469 c -1.469 -1.475 -3.147 -2.744 -4.969 -3.781 z m 4.969 3.781 c 3.854 4.113 6.219 9.637 6.219 15.719 c 0 12.703 -10.297 23 -23 23 c -6.081 0 -11.606 -2.364 -15.719 -6.219 c 4.16 4.144 9.883 6.719 16.219 6.719 c 12.703 0 23 -10.298 23 -23 c 0 -6.335 -2.575 -12.06 -6.719 -16.219 z" opacity="0.05"/><path d="m 41.28 8.781 c 3.712 4.085 5.969 9.514 5.969 15.469 c 0 12.703 -10.297 23 -23 23 c -5.954 0 -11.384 -2.256 -15.469 -5.969 c 4.113 3.854 9.637 6.219 15.719 6.219 c 12.703 0 23 -10.298 23 -23 c 0 -6.081 -2.364 -11.606 -6.219 -15.719 z" opacity="0.1"/><path d="m 31.25 2.375 c 8.615 3.154 14.75 11.417 14.75 21.13 c 0 12.426 -10.07 22.5 -22.5 22.5 c -9.708 0 -17.971 -6.135 -21.12 -14.75 a 23 23 0 0 0 44.875 -7 a 23 23 0 0 0 -16 -21.875 z" opacity="0.2"/></g><g><path d="m 24 1 c 12.703 0 23 10.297 23 23 c 0 12.703 -10.297 23 -23 23 -12.703 0 -23 -10.297 -23 -23 0 -12.703 10.297 -23 23 -23 z" fill="url(#linearGradient3764)" fill-opacity="1"/></g><g/><g><g clip-path="url(#clipPath-974107602)"><g transform="translate(1,1)"><g opacity="0.1"><!-- color: #f5a562 --><g><path d="m 14 13 l 19.996 0 l 0 22 l -19.996 0 m 0 -22" fill="#000" stroke="none" fill-rule="nonzero" fill-opacity="1"/><path d="m 31 18.5 c 0 1.379 -1.121 2.5 -2.5 2.5 c -1.383 0 -2.5 -1.121 -2.5 -2.5 c 0 -1.379 1.117 -2.5 2.5 -2.5 c 1.379 0 2.5 1.121 2.5 2.5 m 0 0" fill="#000" stroke="none" fill-rule="nonzero" fill-opacity="1"/><path d="m 25.02 30.5 l 4 -5.5 l 5.098 9 l -6.102 1 m -2.996 -4.5" fill="#000" stroke="none" fill-rule="nonzero" fill-opacity="1"/><path d="m 14 34 l 7 -10.996 l 7 10.996 l -8 1 m -6 -1" fill="#000" stroke="none" fill-rule="nonzero" fill-opacity="1"/><path d="m 14 12 c -0.379 0 -1 0.586 -1 1 l 0 22 c 0 0.414 0.621 1 1 1 l 19.898 0 c 0.379 0 1.102 -0.586 1.102 -1 l 0 -22 c 0 -0.414 -0.723 -1 -1.102 -1 m -18.898 2 l 18 0 l 0 19.996 l -18 0 m 0 -19.996" fill="#000" stroke="none" fill-rule="nonzero" fill-opacity="1"/></g></g></g></g></g><g><g clip-path="url(#clipPath-981660920)"><!-- color: #f5a562 --><g><path d="m 14 13 l 19.996 0 l 0 22 l -19.996 0 m 0 -22" fill="#5acffb" stroke="none" fill-rule="nonzero" fill-opacity="1"/><path d="m 31 18.5 c 0 1.379 -1.121 2.5 -2.5 2.5 c -1.383 0 -2.5 -1.121 -2.5 -2.5 c 0 -1.379 1.117 -2.5 2.5 -2.5 c 1.379 0 2.5 1.121 2.5 2.5 m 0 0" fill="#ffec95" stroke="none" fill-rule="nonzero" fill-opacity="1"/><path d="m 25.02 30.5 l 4 -5.5 l 5.098 9 l -6.102 1 m -2.996 -4.5" fill="#439c62" stroke="none" fill-rule="nonzero" fill-opacity="1"/><path d="m 14 34 l 7 -10.996 l 7 10.996 l -8 1 m -6 -1" fill="#45b969" stroke="none" fill-rule="nonzero" fill-opacity="1"/><path d="m 14 12 c -0.379 0 -1 0.586 -1 1 l 0 22 c 0 0.414 0.621 1 1 1 l 19.898 0 c 0.379 0 1.102 -0.586 1.102 -1 l 0 -22 c 0 -0.414 -0.723 -1 -1.102 -1 m -18.898 2 l 18 0 l 0 19.996 l -18 0 m 0 -19.996" fill="#ecedf1" stroke="none" fill-rule="nonzero" fill-opacity="1"/></g></g></g><g><path d="m 40.03 7.531 c 3.712 4.084 5.969 9.514 5.969 15.469 0 12.703 -10.297 23 -23 23 c -5.954 0 -11.384 -2.256 -15.469 -5.969 4.178 4.291 10.01 6.969 16.469 6.969 c 12.703 0 23 -10.298 23 -23 0 -6.462 -2.677 -12.291 -6.969 -16.469 z" opacity="0.1"/></g></svg>

<svg xmlns="http://www.w3.org/2000/svg" viewBox="0 0 48 48">
 <defs>
  <linearGradient id="linearGradient3764" x1="1" x2="47" gradientUnits="userSpaceOnUse" gradientTransform="matrix(0,-1,1,0,-1.5e-6,47.999998)">
   <stop style="stop-color:#f49950;stop-opacity:1"/>
   <stop offset="1" style="stop-color:#f5a562;stop-opacity:1"/>
  </linearGradient>
  <clipPath id="clipPath-974107602">
   <g transform="translate(0,-1004.3622)">
    <path d="m -24 13 c 0 1.105 -0.672 2 -1.5 2 -0.828 0 -1.5 -0.895 -1.5 -2 0 -1.105 0.672 -2 1.5 -2 0.828 0 1.5 0.895 1.5 2 z" transform="matrix(15.333333,0,0,11.5,414.99999,878.8622)" style="fill:#1890d0"/>
   </g>
  </clipPath>
  <clipPath id="clipPath-981660920">
   <g transform="translate(0,-1004.3622)">
    <path d="m -24 13 c 0 1.105 -0.672 2 -1.5 2 -0.828 0 -1.5 -0.895 -1.5 -2 0 -1.105 0.672 -2 1.5 -2 0.828 0 1.5 0.895 1.5 2 z" transform="matrix(15.333333,0,0,11.5,414.99999,878.8622)" style="fill:#1890d0"/>
   </g>
  </clipPath>
 </defs>
 <g>
  <path d="m 36.31 5 c 5.859 4.062 9.688 10.831 9.688 18.5 c 0 12.426 -10.07 22.5 -22.5 22.5 c -7.669 0 -14.438 -3.828 -18.5 -9.688 c 1.037 1.822 2.306 3.499 3.781 4.969 c 4.085 3.712 9.514 5.969 15.469 5.969 c 12.703 0 23 -10.298 23 -23 c 0 -5.954 -2.256 -11.384 -5.969 -15.469 c -1.469 -1.475 -3.147 -2.744 -4.969 -3.781 z m 4.969 3.781 c 3.854 4.113 6.219 9.637 6.219 15.719 c 0 12.703 -10.297 23 -23 23 c -6.081 0 -11.606 -2.364 -15.719 -6.219 c 4.16 4.144 9.883 6.719 16.219 6.719 c 12.703 0 23 -10.298 23 -23 c 0 -6.335 -2.575 -12.06 -6.719 -16.219 z" style="opacity:0.05"/>
  <path d="m 41.28 8.781 c 3.712 4.085 5.969 9.514 5.969 15.469 c 0 12.703 -10.297 23 -23 23 c -5.954 0 -11.384 -2.256 -15.469 -5.969 c 4.113 3.854 9.637 6.219 15.719 6.219 c 12.703 0 23 -10.298 23 -23 c 0 -6.081 -2.364 -11.606 -6.219 -15.719 z" style="opacity:0.1"/>
  <path d="m 31.25 2.375 c 8.615 3.154 14.75 11.417 14.75 21.13 c 0 12.426 -10.07 22.5 -22.5 22.5 c -9.708 0 -17.971 -6.135 -21.12 -14.75 a 23 23 0 0 0 44.875 -7 a 23 23 0 0 0 -16 -21.875 z" style="opacity:0.2"/>
 </g>
 <g>
  <path d="m 24 1 c 12.703 0 23 10.297 23 23 c 0 12.703 -10.297 23 -23 23 -12.703 0 -23 -10.297 -23 -23 0 -12.703 10.297 -23 23 -23 z" style="fill:url(#linearGradient3764);fill-opacity:1"/>
 </g>
 <g>
  <g style="clip-path:url(#clipPath-974107602)">
   <g transform="translate(1,1)">
    <g style="opacity:0.1">
     <!-- color: #f5a562 -->
     <g>
      <path d="m 14,12 c -0.379,0 -1,0.586 -1,1 l 0,22 c 0,0.414 0.621,1 1,1 l 19.898,0 C 34.277,36 35,35.414 35,35 l 0,-22 c 0,-0.414 -0.723,-1 -1.102,-1" style="fill:#000;fill-opacity:1;stroke:none;fill-rule:nonzero"/>
     </g>
    </g>
   </g>
  </g>
 </g>
 <g>
  <g style="clip-path:url(#clipPath-981660920)">
   <!-- color: #f5a562 -->
   <g>
    <path d="m 14,13 19.996,0 0,22 L 14,35 m 0,-22" style="fill:#5acffb;fill-opacity:1;stroke:none;fill-rule:nonzero"/>
    <path d="M 31,18.5 C 31,19.879 29.879,21 28.5,21 27.117,21 26,19.879 26,18.5 26,17.121 27.117,16 28.5,16 c 1.379,0 2.5,1.121 2.5,2.5 m 0,0" style="fill:#ffec95;fill-opacity:1;stroke:none;fill-rule:nonzero"/>
    <path d="m 25.02,30.5 4,-5.5 5.098,9 -6.102,1 M 25.02,30.5" style="fill:#439c62;fill-opacity:1;stroke:none;fill-rule:nonzero"/>
    <path d="M 14,34 21,23.004 28,34 20,35 m -6,-1" style="fill:#45b969;fill-opacity:1;stroke:none;fill-rule:nonzero"/>
    <path d="m 14,12 c -0.379,0 -1,0.586 -1,1 l 0,22 c 0,0.414 0.621,1 1,1 l 19.898,0 C 34.277,36 35,35.414 35,35 l 0,-22 c 0,-0.414 -0.723,-1 -1.102,-1 M 15,14 l 18,0 0,19.996 -18,0 M 15,14" style="fill:#ecedf1;fill-opacity:1;stroke:none;fill-rule:nonzero"/>
   </g>
  </g>
 </g>
 <g>
  <path d="m 40.03 7.531 c 3.712 4.084 5.969 9.514 5.969 15.469 0 12.703 -10.297 23 -23 23 c -5.954 0 -11.384 -2.256 -15.469 -5.969 4.178 4.291 10.01 6.969 16.469 6.969 c 12.703 0 23 -10.298 23 -23 0 -6.462 -2.677 -12.291 -6.969 -16.469 z" style="opacity:0.1"/>
 </g>
</svg>
